X:1
T:Foggy Dew, The [4]
M:C
L:1/8
S:Frank Kidson - Old English Country Dances (1890)
Z:AK/Fiddler's Companion
K:F
F|F>GA>B c2f2|({e}d2) c>B ({B}A2) zc|({B}A2) GF E>FG>A|
F6 zF|F>GA>B c2f2|({e}d2) c>B ({B}A2) zc|({B}A2) GF E>FG>A|F6:|
|:z|c|c3 d _e3e|({_e}d2) cB ({B}A2) zF|f2f2 g_ecB|({B}A6) zc|
F>GA>c c2f2|({e}d2) c>B ({B}A2) zc|({B}A2) GF E>FG>A|F6:|
